X:104
T:Learned from Tom McCann in Philly
S:Learned from Tom McCann at Paddy Rooney's & Jack McShea's sessions.
R: polka
M: 2/4
L: 1/8
K: G
DG G2 | FG A2 | BG G2 | AB cA |
DG G2 | FG A2 | Bd cA | G2 G2 :|
|: Bd d^c/d/ | ed d2 | BG G2 | AB cA |
|[1 Bd d^c/d/ | ed d2 | Bd cA | G2 G2 :|
|[2 DG G2 | FG A2 | Bd cA | G2 G2 |

